X:1
N: Genevieve's Jig
N: 4 x 32J 4C (RSCDS Bk 32)
T: The Chantreus
C: arr. T. Traub 8-25-2004
R: jig
M: 6/8
L: 1/8
%
K: C
|: G|"C"c2 c cBc|"G"d2 B GAB|"C"c2 c e2 g|"Dm"d2 e "G7"fed|"C"c2 c "D7"cBA|
"G"B2 c d2 e|"Dm"A2 d "G"BAB|"C"c3 c2 :||: g|"F"c'2 a "G"b2 g|"F"c'2 a "G"g2 e|
"C"c>dc efg|"Dm"afd "G"d2 g|"Am"c'2 a "G"b2 g|"F"c'2 a "C"gec|"G"G>AG GAB|"C"c3 c'2 :|
